; generated by Slic3r 0.9.9 on 2013-04-17 at 23:48:13

; layer_height = 0.2
; perimeters = 3
; top_solid_layers = 3
; bottom_solid_layers = 3
; fill_density = 0.4
; perimeter_speed = 30
; infill_speed = 60
; travel_speed = 130
; nozzle_diameter = 0.5
; filament_diameter = 1.75
; extrusion_multiplier = 1
; perimeters extrusion width = 0.85mm
; infill extrusion width = 1.02mm
; solid infill extrusion width = 0.85mm
; top infill extrusion width = 0.85mm
; support material extrusion width = 0.85mm
; first layer extrusion width = 0.64mm

G21 ; set units to millimeters
M107
M190 S90 ; wait for bed temperature to be reached
M104 S245 ; set temperature
G28 ; home all axes
M109 S245 ; wait for temperature to be reached
G90 ; use absolute coordinates
G92 E0
M82 ; use absolute distances for extrusion
G1 F1800.000 E-2.00000
G1 Z0.820
G92 E0
G1 X53.360 Y54.100 F7800.000
G1 Z0.320
G1 F1800.000 E2.00000
G1 X53.760 Y53.750 F540.000 E2.04313
G1 X54.410 Y53.280 E2.10822
G1 X54.870 Y53.020 E2.15110
G1 X55.350 Y52.790 E2.19429
G1 X56.100 Y52.520 E2.25898
G1 X56.620 Y52.390 E2.30247
G1 X57.410 Y52.280 E2.36720
G1 X57.940 Y52.260 E2.41024
G1 X102.330 Y52.270 E6.01244
G1 X102.860 Y52.310 E6.05557
G1 X103.380 Y52.390 E6.09826
G1 X103.900 Y52.520 E6.14176
G1 X104.650 Y52.790 E6.20644
G1 X105.130 Y53.020 E6.24964
G1 X105.590 Y53.280 E6.29251
G1 X106.240 Y53.750 E6.35761
G1 X106.640 Y54.100 E6.40074
G1 X107.180 Y54.690 E6.46564
G1 X107.500 Y55.120 E6.50914
G1 X107.650 Y55.340 E6.53074
G1 X107.910 Y55.800 E6.57362
G1 X108.140 Y56.280 E6.61682
G1 X108.410 Y57.030 E6.68150
G1 X108.540 Y57.550 E6.72500
G1 X108.650 Y58.340 E6.78972
G1 X108.670 Y58.870 E6.83276
G1 X108.670 Y101.560 E10.29701
G1 X108.650 Y102.090 E10.34005
G1 X108.540 Y102.880 E10.40477
G1 X108.480 Y103.140 E10.42643
G1 X108.330 Y103.650 E10.46956
G1 X108.140 Y104.150 E10.51297
G1 X107.910 Y104.630 E10.55616
G1 X107.650 Y105.090 E10.59904
G1 X107.180 Y105.740 E10.66413
G1 X106.830 Y106.140 E10.70726
G1 X106.240 Y106.680 E10.77217
G1 X105.810 Y107.000 E10.81566
G1 X105.590 Y107.150 E10.83727
G1 X105.130 Y107.410 E10.88015
G1 X104.650 Y107.640 E10.92334
G1 X103.900 Y107.910 E10.98803
G1 X103.380 Y108.040 E11.03152
G1 X102.590 Y108.150 E11.09625
G1 X102.060 Y108.170 E11.13929
G1 X57.670 Y108.160 E14.74148
G1 X57.140 Y108.120 E14.78462
G1 X56.620 Y108.040 E14.82731
G1 X56.100 Y107.910 E14.87081
G1 X55.350 Y107.640 E14.93549
G1 X54.870 Y107.410 E14.97868
G1 X54.410 Y107.150 E15.02156
G1 X53.760 Y106.680 E15.08665
G1 X53.360 Y106.330 E15.12978
G1 X52.820 Y105.740 E15.19469
G1 X52.500 Y105.310 E15.23818
G1 X52.350 Y105.090 E15.25979
G1 X52.090 Y104.630 E15.30267
G1 X51.860 Y104.150 E15.34586
G1 X51.590 Y103.400 E15.41055
G1 X51.460 Y102.880 E15.45404
G1 X51.350 Y102.090 E15.51877
G1 X51.330 Y101.560 E15.56181
G1 X51.330 Y58.870 E19.02605
G1 X51.350 Y58.340 E19.06909
G1 X51.460 Y57.550 E19.13382
G1 X51.590 Y57.030 E19.17732
G1 X51.760 Y56.530 E19.22017
G1 X51.970 Y56.040 E19.26343
G1 X52.350 Y55.340 E19.32807
G1 X52.500 Y55.120 E19.34967
G1 X52.820 Y54.690 E19.39317
G1 X53.295 Y54.165 E19.45066
G1 F1800.000 E17.45066
G1 Z0.820
G92 E0
G1 X79.569 Y58.872 F7800.000
G1 Z0.320
G1 F1800.000 E2.00000
G1 X57.931 Y58.872 F1080.000 E3.75588
G1 X57.931 Y60.092 E3.85488
G1 X79.569 Y60.092 E5.61076
G1 F1800.000 E3.61076
G1 Z0.820
G92 E0
G1 X102.069 Y58.872 F7800.000
G1 Z0.320
G1 F1800.000 E2.00000
G1 X93.431 Y58.872 F1080.000 E2.70095
G1 X93.431 Y60.092 E2.79994
G1 X102.069 Y60.092 E3.50089
G1 X102.069 Y61.312 E3.59989
G1 X57.931 Y61.312 E7.18161
G1 X57.931 Y62.532 E7.28061
G1 X102.069 Y62.532 E10.86233
G1 X102.069 Y63.752 E10.96133
G1 X57.931 Y63.752 E14.54305
G1 X57.931 Y64.972 E14.64205
G1 X102.069 Y64.972 E18.22377
G1 X102.069 Y66.191 E18.32277
G1 X57.931 Y66.191 E21.90449
G1 X57.931 Y67.411 E22.00349
G1 X102.069 Y67.411 E25.58521
G1 X102.069 Y68.631 E25.68421
G1 X57.931 Y68.631 E29.26593
G1 X57.931 Y69.851 E29.36493
G1 X102.069 Y69.851 E32.94665
G1 X102.069 Y71.071 E33.04565
G1 X57.931 Y71.071 E36.62737
G1 X57.931 Y72.291 E36.72637
G1 X102.069 Y72.291 E40.30810
G1 X102.069 Y73.511 E40.40709
G1 X57.931 Y73.511 E43.98882
G1 X57.931 Y74.731 E44.08781
G1 X102.069 Y74.731 E47.66954
G1 X102.069 Y75.951 E47.76853
G1 X57.931 Y75.951 E51.35026
G1 X57.931 Y77.171 E51.44925
G1 X102.069 Y77.171 E55.03098
G1 X102.069 Y78.391 E55.12997
G1 X57.931 Y78.391 E58.71170
G1 X57.931 Y79.610 E58.81069
G1 X102.069 Y79.610 E62.39242
G1 X102.069 Y80.830 E62.49141
G1 X57.931 Y80.830 E66.07314
G1 X57.931 Y82.050 E66.17213
G1 X102.069 Y82.050 E69.75386
G1 X102.069 Y83.270 E69.85285
G1 X57.931 Y83.270 E73.43458
G1 X57.931 Y84.490 E73.53357
G1 X102.069 Y84.490 E77.11530
G1 X102.069 Y85.710 E77.21429
G1 X57.931 Y85.710 E80.79602
G1 X57.931 Y86.930 E80.89501
G1 X102.069 Y86.930 E84.47674
G1 X102.069 Y88.150 E84.57573
G1 X57.931 Y88.150 E88.15746
G1 X57.931 Y89.370 E88.25645
G1 X102.069 Y89.370 E91.83818
G1 X102.069 Y90.590 E91.93717
G1 X57.931 Y90.590 E95.51890
G1 X57.931 Y91.810 E95.61789
G1 X102.069 Y91.810 E99.19962
G1 X102.069 Y93.029 E99.29861
G1 X57.931 Y93.029 E102.88034
G1 X57.931 Y94.249 E102.97933
G1 X102.069 Y94.249 E106.56106
G1 X102.069 Y95.469 E106.66005
G1 X57.931 Y95.469 E110.24178
G1 X57.931 Y96.689 E110.34077
G1 X102.069 Y96.689 E113.92250
G1 X102.069 Y97.909 E114.02149
G1 X57.931 Y97.909 E117.60322
G1 F1800.000 E115.60322
G1 Z0.820
G92 E0
G1 X57.931 Y101.569 F7800.000
G1 Z0.320
G1 F1800.000 E2.00000
G1 X79.569 Y101.569 F1080.000 E3.75588
G1 X79.569 Y100.349 E3.85488
G1 X57.931 Y100.349 E5.61076
G1 X57.931 Y99.129 E5.70976
G1 X102.069 Y99.129 E9.29148
G1 X102.069 Y100.349 E9.39048
G1 X93.431 Y100.349 E10.09143
G1 X93.431 Y101.569 E10.19042
G1 X102.069 Y101.569 E10.89137
G1 F1800.000 E8.89137
G1 Z0.820
G92 E0
M106 S255
G1 Z0.520 F7800.000
G1 X100.856 Y100.927
G1 Z0.020
G1 F1800.000 E2.00000
G1 X100.856 Y59.073 F2934.699 E4.80883
G1 F1800.000 E2.80883
G1 Z0.520
G92 E0
G1 X98.356 Y59.073 F7800.000
G1 Z0.020
G1 F1800.000 E2.00000
G1 X98.356 Y100.927 F2934.699 E4.80883
G1 F1800.000 E2.80883
G1 Z0.520
G92 E0
G1 X95.856 Y100.927 F7800.000
G1 Z0.020
G1 F1800.000 E2.00000
G1 X95.856 Y59.073 F2934.699 E4.80883
G1 X95.585 Y59.073 F7800.000
G1 X94.073 Y60.283 F2934.699 E4.93884
G1 X93.356 Y61.073 F7800.000
G1 X93.356 Y98.927 F2934.699 E7.47923
G1 F1800.000 E5.47923
G1 Z0.520
G92 E0
G1 X90.856 Y98.927 F7800.000
G1 Z0.020
G1 F1800.000 E2.00000
G1 X90.856 Y61.073 F2934.699 E4.54039
G1 F1800.000 E2.54039
G1 Z0.520
G92 E0
G1 X88.356 Y61.073 F7800.000
G1 Z0.020
G1 F1800.000 E2.00000
G1 X88.356 Y98.927 F2934.699 E4.54039
G1 F1800.000 E2.54039
G1 Z0.520
G92 E0
G1 X85.856 Y98.927 F7800.000
G1 Z0.020
G1 F1800.000 E2.00000
G1 X85.856 Y61.073 F2934.699 E4.54039
G1 F1800.000 E2.54039
G1 Z0.520
G92 E0
G1 X83.356 Y61.073 F7800.000
G1 Z0.020
G1 F1800.000 E2.00000
G1 X83.356 Y98.927 F2934.699 E4.54039
G1 F1800.000 E2.54039
G1 Z0.520
G92 E0
G1 X80.856 Y98.927 F7800.000
G1 Z0.020
G1 F1800.000 E2.00000
G1 X80.856 Y61.073 F2934.699 E4.54039
G1 F1800.000 E2.54039
G1 Z0.520
G92 E0
G1 X78.356 Y59.073 F7800.000
G1 Z0.020
G1 F1800.000 E2.00000
G1 X78.356 Y100.927 F2934.699 E4.80883
G1 F1800.000 E2.80883
G1 Z0.520
G92 E0
G1 X75.856 Y100.927 F7800.000
G1 Z0.020
G1 F1800.000 E2.00000
G1 X75.856 Y59.073 F2934.699 E4.80883
G1 F1800.000 E2.80883
G1 Z0.520
G92 E0
G1 X73.356 Y59.073 F7800.000
G1 Z0.020
G1 F1800.000 E2.00000
G1 X73.356 Y100.927 F2934.699 E4.80883
G1 F1800.000 E2.80883
G1 Z0.520
G92 E0
G1 X70.856 Y100.927 F7800.000
G1 Z0.020
G1 F1800.000 E2.00000
G1 X70.856 Y59.073 F2934.699 E4.80883
G1 F1800.000 E2.80883
G1 Z0.520
G92 E0
G1 X68.356 Y59.073 F7800.000
G1 Z0.020
G1 F1800.000 E2.00000
G1 X68.356 Y100.927 F2934.699 E4.80883
G1 F1800.000 E2.80883
G1 Z0.520
G92 E0
G1 X65.856 Y100.927 F7800.000
G1 Z0.020
G1 F1800.000 E2.00000
G1 X65.856 Y59.073 F2934.699 E4.80883
G1 F1800.000 E2.80883
G1 Z0.520
G92 E0
G1 X63.356 Y59.073 F7800.000
G1 Z0.020
G1 F1800.000 E2.00000
G1 X63.356 Y100.927 F2934.699 E4.80883
G1 F1800.000 E2.80883
G1 Z0.520
G92 E0
G1 X60.856 Y100.927 F7800.000
G1 Z0.020
G1 F1800.000 E2.00000
G1 X60.856 Y59.073 F2934.699 E4.80883
G1 F1800.000 E2.80883
G1 Z1.020
G92 E0
G1 X78.356 Y58.856 F7800.000
G1 Z0.520
G1 F1800.000 E2.00000
G1 X78.356 Y101.144 F2934.699 E4.83788
G1 X75.856 Y101.144 E5.00566
G1 X75.856 Y58.856 E7.84354
G1 X73.356 Y58.856 E8.01131
G1 X73.356 Y101.144 E10.84920
G1 X70.856 Y101.144 E11.01697
G1 X70.856 Y58.856 E13.85486
G1 X68.356 Y58.856 E14.02263
G1 X68.356 Y101.144 E16.86051
G1 X65.856 Y101.144 E17.02829
G1 X65.856 Y58.856 E19.86617
G1 X63.356 Y58.856 E20.03394
G1 X63.356 Y101.144 E22.87183
G1 X60.856 Y101.144 E23.03960
G1 X60.856 Y58.856 E25.87748
G1 X58.356 Y58.856 E26.04526
G1 X58.356 Y101.144 E28.88314
G1 F1800.000 E26.88314
G1 Z1.020
G92 E0
G1 X100.856 Y101.144 F7800.000
G1 Z0.520
G1 F1800.000 E2.00000
G1 X100.856 Y58.856 F2934.699 E4.83788
G1 X98.356 Y58.856 E5.00566
G1 X98.356 Y101.144 E7.84354
G1 X95.856 Y101.144 E8.01131
G1 X95.856 Y58.856 E10.84920
G1 X93.356 Y60.856 E11.06405
G1 X93.356 Y99.144 E13.63351
G1 X90.856 Y99.144 E13.80128
G1 X90.856 Y60.856 E16.37075
G1 X88.356 Y60.856 E16.53852
G1 X88.356 Y99.144 E19.10798
G1 X85.856 Y99.144 E19.27575
G1 X85.856 Y60.856 E21.84522
G1 X83.356 Y60.856 E22.01299
G1 X83.356 Y99.144 E24.58245
G1 X80.856 Y99.144 E24.75022
G1 X80.856 Y60.856 E27.31969
M107
G1 F1800.000 E25.31969
G1 Z1.220
G92 E0
G1 X78.427 Y61.573 F7800.000
G1 X94.573 Y61.573
G1 X100.927 Y59.573
G1 X99.410 Y61.090
G1 Z0.720
G1 F1800.000 E2.00000
G1 X99.410 Y98.910 F1800.000 E4.53801
G1 X96.090 Y98.910 E4.76077
G1 X96.090 Y96.910 E4.89499
G1 X76.910 Y96.910 E6.18218
G1 X76.910 Y98.910 E6.31640
G1 X60.590 Y98.910 E7.41157
G1 X60.590 Y61.090 E9.94959
G1 X76.910 Y61.090 E11.04476
G1 X76.910 Y63.090 E11.17898
G1 X96.090 Y63.090 E12.46617
G1 X96.090 Y61.090 E12.60039
G1 X99.289 Y61.090 E12.81502
G1 X100.217 Y60.283 F7800.000
G1 X100.217 Y99.717 F1800.000 E15.46136
G1 X95.283 Y99.717 E15.79244
G1 X95.283 Y97.717 E15.92666
G1 X77.717 Y97.717 E17.10553
G1 X77.717 Y99.717 E17.23975
G1 X59.783 Y99.717 E18.44325
G1 X59.783 Y60.283 E21.08959
G1 X77.717 Y60.283 E22.29308
G1 X77.717 Y62.283 E22.42730
G1 X95.283 Y62.283 E23.60617
G1 X95.283 Y60.283 E23.74039
G1 X100.096 Y60.283 E24.06335
G1 X101.024 Y59.476 F7800.000
G1 X101.024 Y100.524 F1260.000 E26.81801
G1 X94.476 Y100.524 E27.25741
G1 X94.476 Y98.524 E27.39163
G1 X78.524 Y98.524 E28.46218
G1 X78.524 Y100.524 E28.59640
G1 X58.976 Y100.524 E29.90822
G1 X58.976 Y59.476 E32.66288
G1 X78.524 Y59.476 E33.97470
G1 X78.524 Y61.476 E34.10892
G1 X94.476 Y61.476 E35.17947
G1 X94.476 Y59.476 E35.31368
G1 X100.903 Y59.476 E35.74497
G1 X100.620 Y60.175 F7800.000
G1 X98.825 Y62.111
M106 S255
G1 X98.389 Y61.675 F3600.000 E35.79524
G1 X97.834 Y61.675 E35.84057
G1 X98.825 Y62.666 E35.95496
G1 X98.825 Y63.222 E36.00030
G1 X97.278 Y61.675 E36.17880
G1 X96.723 Y61.675 E36.22413
G1 X98.825 Y63.777 E36.46675
G1 X98.825 Y64.332 E36.51208
G1 X96.675 Y62.183 E36.76021
G1 X96.675 Y62.738 E36.80555
G1 X98.825 Y64.888 E37.05368
G1 X98.825 Y65.443 E37.09901
G1 X96.675 Y63.294 E37.34714
G1 X96.502 Y63.675 E37.38137
G1 X98.825 Y65.998 E37.64955
G1 X98.825 Y66.554 E37.69489
G1 X95.946 Y63.675 E38.02718
G1 X95.391 Y63.675 E38.07252
G1 X98.825 Y67.109 E38.46892
G1 X98.825 Y67.664 E38.51426
G1 X94.836 Y63.675 E38.97478
G1 X94.280 Y63.675 E39.02012
G1 X98.825 Y68.220 E39.54475
G1 X98.825 Y68.775 E39.59009
G1 X93.725 Y63.675 E40.17884
G1 X93.169 Y63.675 E40.22418
G1 X98.825 Y69.331 E40.87704
G1 X98.825 Y69.886 E40.92238
G1 X92.614 Y63.675 E41.63935
G1 X92.059 Y63.675 E41.68469
G1 X98.825 Y70.441 E42.46578
G1 X98.825 Y70.997 E42.51112
G1 X91.503 Y63.675 E43.35633
G1 X90.948 Y63.675 E43.40166
G1 X98.825 Y71.552 E44.31098
G1 X98.825 Y72.107 E44.35632
G1 X90.393 Y63.675 E45.32975
G1 X89.837 Y63.675 E45.37509
G1 X98.825 Y72.663 E46.41264
G1 X98.825 Y73.218 E46.45797
G1 X89.282 Y63.675 E47.55964
G1 X88.727 Y63.675 E47.60497
G1 X98.825 Y73.773 E48.77075
G1 X98.825 Y74.329 E48.81609
G1 X88.171 Y63.675 E50.04598
G1 X87.616 Y63.675 E50.09131
G1 X98.825 Y74.884 E51.38532
G1 X98.825 Y75.439 E51.43066
G1 X87.061 Y63.675 E52.78878
G1 X86.505 Y63.675 E52.83411
G1 X98.825 Y75.995 E54.25635
G1 X98.825 Y76.550 E54.30168
G1 X85.950 Y63.675 E55.78803
G1 X85.394 Y63.675 E55.83336
G1 X98.825 Y77.106 E57.38383
G1 X98.825 Y77.661 E57.42916
G1 X84.839 Y63.675 E59.04374
G1 X84.284 Y63.675 E59.08908
G1 X98.825 Y78.216 E60.76777
G1 X98.825 Y78.772 E60.81310
G1 X83.728 Y63.675 E62.55591
G1 X83.173 Y63.675 E62.60124
G1 X98.825 Y79.327 E64.40816
G1 X98.825 Y79.882 E64.45350
G1 X82.618 Y63.675 E66.32453
G1 X82.062 Y63.675 E66.36987
G1 X98.825 Y80.438 E68.30501
G1 X98.825 Y80.993 E68.35035
G1 X81.507 Y63.675 E70.34961
G1 X80.952 Y63.675 E70.39495
G1 X98.825 Y81.548 E72.45832
G1 X98.825 Y82.104 E72.50366
G1 X80.396 Y63.675 E74.63115
G1 X79.841 Y63.675 E74.67648
G1 X98.825 Y82.659 E76.86809
G1 X98.825 Y83.215 E76.91342
G1 X79.285 Y63.675 E79.16914
G1 X78.730 Y63.675 E79.21448
G1 X98.825 Y83.770 E81.53431
G1 X98.825 Y84.325 E81.57964
G1 X78.175 Y63.675 E83.96359
G1 X77.619 Y63.675 E84.00892
G1 X98.825 Y84.881 E86.45699
G1 X98.825 Y85.436 E86.50232
G1 X77.064 Y63.675 E89.01450
G1 X76.509 Y63.675 F7800.000
M107
M106 S255
G1 X98.825 Y85.991 F3600.000 E91.59078
G1 X98.825 Y86.547 E91.63612
G1 X73.953 Y61.675 E94.50741
G1 X73.398 Y61.675 E94.55275
G1 X98.825 Y87.102 E97.48816
G1 X98.825 Y87.657 E97.53349
G1 X72.843 Y61.675 E100.53302
G1 X72.287 Y61.675 E100.57835
G1 X98.825 Y88.213 E103.64199
G1 X98.825 Y88.768 E103.68733
G1 X71.732 Y61.675 E106.81508
G1 X71.177 Y61.675 E106.86041
G1 X98.825 Y89.323 E110.05228
G1 X98.825 Y89.879 E110.09761
G1 X70.621 Y61.675 E113.35359
G1 X70.066 Y61.675 E113.39893
G1 X98.825 Y90.434 E116.71902
G1 X98.825 Y90.990 E116.76436
G1 X69.510 Y61.675 E120.14857
G1 X68.955 Y61.675 E120.19390
G1 X98.825 Y91.545 E123.64222
G1 X98.825 Y92.100 E123.68756
G1 X68.400 Y61.675 E127.20000
G1 X67.844 Y61.675 E127.24533
G1 X98.825 Y92.656 E130.82188
G1 X98.825 Y93.211 E130.86722
G1 X67.289 Y61.675 E134.50788
G1 X66.734 Y61.675 E134.55322
G1 X98.825 Y93.766 E138.25800
G1 X98.825 Y94.322 E138.30333
G1 X66.178 Y61.675 E142.07222
G1 X65.623 Y61.675 E142.11756
G1 X98.825 Y94.877 E145.95057
G1 X98.825 Y95.432 E145.99590
G1 X65.068 Y61.675 E149.89302
G1 X64.512 Y61.675 E149.93836
G1 X98.825 Y95.988 E153.89959
G1 X98.825 Y96.543 E153.94493
G1 X63.957 Y61.675 E157.97028
G1 X63.401 Y61.675 E158.01562
G1 X98.825 Y97.099 E162.10508
G1 X98.825 Y97.654 E162.15041
G1 X62.846 Y61.675 E166.30399
G1 X62.291 Y61.675 E166.34933
G1 X98.825 Y98.209 E170.56702
G1 X98.385 Y98.325 E170.60415
G1 X96.675 Y96.615 E170.80149
G1 X96.385 Y96.325 F7800.000
M107
M106 S255
G1 X61.735 Y61.675 F3600.000 E174.80161
G1 X61.180 Y61.675 E174.84694
G1 X95.829 Y96.325 E178.84707
G1 X95.274 Y96.325 E178.89240
G1 X61.175 Y62.226 E182.82895
G1 X61.175 Y62.781 E182.87429
G1 X94.719 Y96.325 E186.74672
G1 X94.163 Y96.325 E186.79206
G1 X61.175 Y63.337 E190.60038
G1 X61.175 Y63.892 E190.64572
G1 X93.608 Y96.325 E194.38992
G1 X93.053 Y96.325 E194.43526
G1 X61.175 Y64.447 E198.11535
G1 X61.175 Y65.003 E198.16069
G1 X92.497 Y96.325 E201.77667
G1 X91.942 Y96.325 E201.82200
G1 X61.175 Y65.558 E205.37387
G1 X61.175 Y66.114 E205.41920
G1 X91.386 Y96.325 E208.90695
G1 X90.831 Y96.325 E208.95229
G1 X61.175 Y66.669 E212.37593
G1 X61.175 Y67.224 E212.42126
G1 X90.276 Y96.325 E215.78079
G1 X89.720 Y96.325 E215.82612
G1 X61.175 Y67.780 E219.12153
G1 X61.175 Y68.335 E219.16686
G1 X89.165 Y96.325 E222.39816
G1 X88.610 Y96.325 E222.44349
G1 X61.175 Y68.890 E225.61067
G1 X61.175 Y69.446 E225.65601
G1 X88.054 Y96.325 E228.75908
G1 X87.499 Y96.325 E228.80441
G1 X61.175 Y70.001 E231.84336
G1 X61.175 Y70.556 E231.88870
G1 X86.944 Y96.325 E234.86354
G1 X86.388 Y96.325 E234.90887
G1 X61.175 Y71.112 E237.81960
G1 X61.175 Y71.667 E237.86493
G1 X85.833 Y96.325 E240.71154
G1 X85.277 Y96.325 E240.75688
G1 X61.175 Y72.223 E243.53937
G1 X61.175 Y72.778 E243.58471
G1 X84.722 Y96.325 E246.30309
G1 X84.167 Y96.325 E246.34842
G1 X61.175 Y73.333 E249.00269
G1 X61.175 Y73.889 E249.04803
